X: 11370
T: Earl's Chair, The
R: reel
M: 4/4
K: Dmajor
|:B2Bd BAFA|B2dB BAFB|~A2AB AFDF|~A2dB ADFA|
B2dB BAFA|B2dB ABdf|edef dBAf|~e3d BAFA:|
|:~e3B d2Bd|~e3B dBAB|~e3B d3e|fedB ABFA|
~e3B ~e3B|~e3B defa|afbf afea|fedB ABFA:|

